;FLAVOR:Marlin
;TIME:30151
;Filament used: 21.1105m
;Layer height: 0.16
;MINX:75.25
;MINY:76.75
;MINZ:0.2
;MAXX:159.75
;MAXY:168.609
;MAXZ:80.04
;Generated with Cura_SteamEngine 5.2.2
M140 S60
M105
M190 S60
M104 S215
M105
M109 S215
M82 ;absolute extrusion mode
Start:
G28 ;home
G92 E0 ;Reset Extruder
G1 Z4.0 F3000 ;Move Z Axis up
G92 E0 ;Reset Extruder
G1 X1.1 Y20 Z0.28 F5000.0 ;Move to start position
G1 X1.1 Y80.0 Z0.28 F1500.0 E10 ;Draw the first line
G1 X1.4 Y80.0 Z0.28 F5000.0 ;Move to side a little
G1 X1.4 Y20 Z0.28 F1500.0 E20 ;Draw the second line
G92 E0 ;Reset Extruder
G1 Z2.0 F3000 ;Move Z Axis u
G92 E0
G92 E0
G1 F1200 E-2.5
;LAYER_COUNT:500
;LAYER:0
M107
G0 F6000 X79.167 Y80.038 Z0.2
;TYPE:SKIRT
G1 F1200 E0
G1 X79.919 Y79.394 E0.07409
G1 X80.72 Y78.813 E0.14814
G1 X81.565 Y78.298 E0.2222
G1 X82.449 Y77.853 E0.29626
G1 X83.366 Y77.481 E0.37032
G1 X84.31 Y77.184 E0.44438
G1 X85.275 Y76.964 E0.51845
G1 X86.255 Y76.823 E0.59254
G1 X87.166 Y76.764 E0.66086
G1 X87.83 Y76.75 E0.71056
G1 X146.968 Y76.751 E5.13617
G1 X147.666 Y76.761 E5.18841
G1 X148.655 Y76.815 E5.26253
G1 X149.635 Y76.949 E5.33655
G1 X150.602 Y77.162 E5.41065
G1 X151.548 Y77.451 E5.48468
G1 X152.468 Y77.817 E5.55877
G1 X153.356 Y78.255 E5.63287
G1 X154.205 Y78.764 E5.70695
G1 X155.01 Y79.339 E5.78098
G1 X155.766 Y79.978 E5.85506
G1 X156.468 Y80.675 E5.92909
G1 X157.112 Y81.427 E6.00318
G1 X157.693 Y82.229 E6.0773
G1 X158.207 Y83.074 E6.15131
G1 X158.651 Y83.959 E6.22541
G1 X159.022 Y84.876 E6.29944
G1 X159.319 Y85.821 E6.37357
G1 X159.537 Y86.786 E6.4476
G1 X159.678 Y87.766 E6.52169
G1 X159.736 Y88.666 E6.58919
G1 X159.75 Y89.33 E6.63889
G1 X159.749 Y145.433 E10.83737
G1 X159.739 Y146.159 E10.89171
G1 X159.685 Y147.147 E10.96576
G1 X159.552 Y148.128 E11.03984
G1 X159.34 Y149.095 E11.11393
G1 X159.051 Y150.041 E11.18795
G1 X158.686 Y150.961 E11.26202
G1 X158.248 Y151.849 E11.33612
G1 X157.74 Y152.698 E11.41016
G1 X157.165 Y153.504 E11.48425
G1 X156.527 Y154.26 E11.55828
G1 X155.83 Y154.963 E11.63236
G1 X155.078 Y155.607 E11.70646
G1 X154.277 Y156.188 E11.78051
G1 X153.432 Y156.703 E11.85456
G1 X152.547 Y157.147 E11.92866
G1 X151.63 Y157.519 E12.00271
G1 X150.686 Y157.816 E12.07677
G1 X149.925 Y157.996 E12.13529
G1 X149.106 Y158.162 E12.19783
G1 X146.622 Y158.699 E12.38802
G1 X144.23 Y159.287 E12.57235
G1 X141.851 Y159.945 E12.75707
G1 X139.422 Y160.69 E12.9472
G1 X137.105 Y161.474 E13.13025
G1 X134.797 Y162.328 E13.31442
G1 X132.459 Y163.269 E13.50302
G1 X130.203 Y164.253 E13.68721
G1 X127.946 Y165.313 E13.87381
G1 X125.709 Y166.442 E14.06133
G1 X124.38 Y167.151 E14.17406
G1 X123.488 Y167.581 E14.24816
G1 X122.565 Y167.938 E14.32222
G1 X121.616 Y168.219 E14.39629
G1 X120.648 Y168.423 E14.47032
G1 X119.666 Y168.548 E14.5444
G1 X118.833 Y168.591 E14.60682
G1 X117.723 Y168.609 E14.6899
G1 X116.304 Y168.608 E14.79609
G1 X115.6 Y168.598 E14.84878
G1 X114.612 Y168.544 E14.92283
G1 X113.631 Y168.41 E14.99692
G1 X112.664 Y168.198 E15.07101
G1 X111.718 Y167.908 E15.14505
G1 X110.798 Y167.543 E15.21912
G1 X109.961 Y167.132 E15.2889
G1 X109.411 Y166.836 E15.33564
G1 X107.118 Y165.639 E15.52922
G1 X104.906 Y164.563 E15.7133
G1 X102.635 Y163.537 E15.89979
G1 X100.323 Y162.572 E16.08727
G1 X98.026 Y161.686 E16.27151
G1 X95.654 Y160.849 E16.45975
G1 X93.354 Y160.109 E16.64056
G1 X90.914 Y159.399 E16.83073
G1 X88.555 Y158.785 E17.01315
G1 X86.028 Y158.204 E17.20719
G1 X84.932 Y157.968 E17.29109
G1 X83.973 Y157.721 E17.3652
G1 X83.038 Y157.397 E17.43925
G1 X82.132 Y156.999 E17.51331
G1 X81.261 Y156.529 E17.58738
G1 X80.431 Y155.99 E17.66144
G1 X79.647 Y155.386 E17.7355
G1 X78.914 Y154.721 E17.80956
G1 X78.237 Y153.998 E17.88369
G1 X77.621 Y153.224 E17.95772
G1 X77.07 Y152.402 E18.03177
G1 X76.586 Y151.538 E18.10588
G1 X76.174 Y150.638 E18.17996
G1 X75.836 Y149.708 E18.25401
G1 X75.574 Y148.753 E18.32812
G1 X75.39 Y147.781 E18.40215
G1 X75.263 Y146.322 E18.51175
G1 X75.25 Y145.658 E18.56145
G1 X75.251 Y89.508 E22.76345
G1 X75.26 Y88.843 E22.81322
G1 X75.313 Y87.855 E22.88726
G1 X75.446 Y86.874 E22.96135
G1 X75.658 Y85.907 E23.03543
G1 X75.947 Y84.961 E23.10945
G1 X76.312 Y84.041 E23.18352
G1 X76.749 Y83.153 E23.25759
G1 X77.257 Y82.303 E23.33169
G1 X77.832 Y81.498 E23.40573
G1 X78.47 Y80.741 E23.47981
G1 X79.167 Y80.038 E23.5539
G0 F6000 X80.045 Y80.458
G1 F1200 X80.788 Y79.863 E23.62513
G1 X81.579 Y79.331 E23.69647
G1 X82.412 Y78.868 E23.76779
G1 X83.28 Y78.476 E23.83906
G1 X84.178 Y78.159 E23.91033
G1 X85.1 Y77.918 E23.98164
G1 X86.039 Y77.755 E24.05297
G1 X87.191 Y77.663 E24.13945
G1 X87.83 Y77.65 E24.18728
G1 X146.956 Y77.651 E28.61199
G1 X147.654 Y77.661 E28.66423
G1 X148.605 Y77.715 E28.73552
G1 X149.548 Y77.848 E28.80678
G1 X150.477 Y78.06 E28.87809
G1 X151.385 Y78.349 E28.9494
G1 X152.265 Y78.713 E29.02067
G1 X153.112 Y79.15 E29.09199
G1 X153.919 Y79.656 E29.16327
G1 X154.681 Y80.228 E29.23458
G1 X155.392 Y80.862 E29.30587
G1 X156.047 Y81.553 E29.37712
G1 X156.643 Y82.297 E29.44846
G1 X157.173 Y83.088 E29.51971
G1 X157.636 Y83.921 E29.59103
G1 X158.027 Y84.789 E29.66227
G1 X158.344 Y85.688 E29.73361
G1 X158.584 Y86.61 E29.80491
G1 X158.747 Y87.548 E29.87616
G1 X158.837 Y88.691 E29.96196
G1 X158.85 Y89.33 E30.00979
G1 X158.849 Y145.42 E34.2073
G1 X158.839 Y146.146 E34.26164
G1 X158.786 Y147.098 E34.33299
G1 X158.653 Y148.041 E34.40426
G1 X158.442 Y148.97 E34.47555
G1 X158.153 Y149.878 E34.54686
G1 X157.79 Y150.758 E34.6181
G1 X157.354 Y151.605 E34.68939
G1 X156.848 Y152.413 E34.76073
G1 X156.276 Y153.175 E34.83204
G1 X155.643 Y153.886 E34.90328
G1 X154.952 Y154.542 E34.97458
G1 X154.208 Y155.138 E35.04592
G1 X153.418 Y155.669 E35.11715
G1 X152.585 Y156.132 E35.18847
G1 X151.716 Y156.524 E35.25981
G1 X150.818 Y156.841 E35.33108
G1 X149.746 Y157.114 E35.41386
G1 X148.899 Y157.286 E35.47854
G1 X146.427 Y157.821 E35.66782
G1 X144.018 Y158.413 E35.85346
G1 X141.566 Y159.09 E36.04382
G1 X139.187 Y159.82 E36.23005
G1 X136.79 Y160.631 E36.41942
G1 X134.465 Y161.492 E36.60496
G1 X132.109 Y162.44 E36.79501
G1 X129.819 Y163.439 E36.98198
G1 X127.56 Y164.499 E37.16872
G1 X125.299 Y165.64 E37.35824
G1 X123.956 Y166.357 E37.47217
G1 X123.097 Y166.77 E37.5435
G1 X122.207 Y167.109 E37.61477
G1 X121.292 Y167.372 E37.68602
G1 X120.357 Y167.558 E37.75736
G1 X119.411 Y167.665 E37.82861
G1 X118.817 Y167.691 E37.8731
G1 X117.723 Y167.709 E37.95498
G1 X116.317 Y167.708 E38.0602
G1 X115.613 Y167.698 E38.11289
G1 X114.662 Y167.644 E38.18417
G1 X113.718 Y167.511 E38.25552
G1 X112.789 Y167.3 E38.32681
G1 X111.882 Y167.011 E38.39805
G1 X111.001 Y166.647 E38.46938
G1 X110.388 Y166.34 E38.52069
G1 X109.823 Y166.035 E38.56874
G1 X107.539 Y164.843 E38.76154
G1 X105.253 Y163.731 E38.95178
G1 X102.993 Y162.711 E39.13733
G1 X100.665 Y161.739 E39.32612
G1 X98.334 Y160.84 E39.51309
G1 X95.987 Y160.011 E39.69936
G1 X93.564 Y159.232 E39.88983
G1 X91.173 Y158.536 E40.07619
G1 X88.773 Y157.912 E40.26176
G1 X86.216 Y157.324 E40.45811
G1 X85.121 Y157.088 E40.54194
G1 X84.199 Y156.849 E40.61322
G1 X83.3 Y156.533 E40.68453
G1 X82.431 Y156.143 E40.75581
G1 X81.598 Y155.681 E40.82709
G1 X80.806 Y155.151 E40.89841
G1 X80.061 Y154.557 E40.96971
G1 X79.369 Y153.902 E41.04102
G1 X78.735 Y153.192 E41.11225
G1 X78.162 Y152.43 E41.1836
G1 X77.655 Y151.624 E41.25486
G1 X77.217 Y150.778 E41.32615
G1 X76.852 Y149.898 E41.39745
G1 X76.562 Y148.99 E41.46878
G1 X76.349 Y148.062 E41.54003
G1 X76.215 Y147.118 E41.61138
G1 X76.163 Y146.298 E41.67287
G1 X76.15 Y145.658 E41.72078
G1 X76.151 Y89.52 E45.92188
G1 X76.16 Y88.855 E45.97165
G1 X76.213 Y87.904 E46.04293
G1 X76.345 Y86.961 E46.11419
G1 X76.556 Y86.032 E46.18548
G1 X76.845 Y85.124 E46.25679
G1 X77.208 Y84.243 E46.3281
G1 X77.644 Y83.396 E46.39939
G1 X78.15 Y82.588 E46.47073
G1 X78.721 Y81.826 E46.54199
G1 X79.354 Y81.115 E46.61323
G1 X80.045 Y80.458 E46.68458
G0 F6000 X80.92 Y80.898
G1 F1200 X81.654 Y80.353 E46.753
G1 X82.433 Y79.875 E46.8214
G1 X83.25 Y79.466 E46.88977
G1 X84.101 Y79.13 E46.95824
G1 X84.977 Y78.87 E47.02662
G1 X85.873 Y78.688 E47.09504
G1 X87.216 Y78.563 E47.19598
G1 X87.83 Y78.55 E47.24194
G1 X146.943 Y78.551 E51.66568
G1 X147.641 Y78.561 E51.71792
G1 X148.553 Y78.614 E51.78628
G1 X149.458 Y78.747 E51.85474
G1 X150.347 Y78.958 E51.92312
G1 X151.215 Y79.246 E51.99155
G1 X152.054 Y79.609 E52.05997
G1 X152.858 Y80.043 E52.12834
G1 X153.621 Y80.547 E52.19677
G1 X154.337 Y81.115 E52.26517
G1 X155.001 Y81.743 E52.33356
G1 X155.607 Y82.427 E52.40195
G1 X156.151 Y83.162 E52.47038
G1 X156.629 Y83.941 E52.53878
G1 X157.037 Y84.759 E52.60718
G1 X157.372 Y85.61 E52.67562
G1 X157.632 Y86.486 E52.74401
G1 X157.813 Y87.382 E52.81241
G1 X157.937 Y88.716 E52.91267
G1 X157.95 Y89.33 E52.95863
G1 X157.949 Y145.408 E57.15525
G1 X157.939 Y146.134 E57.20958
G1 X157.886 Y147.047 E57.27802
G1 X157.754 Y147.951 E57.34639
G1 X157.544 Y148.841 E57.41482
G1 X157.256 Y149.708 E57.48319
G1 X156.894 Y150.547 E57.55157
G1 X156.46 Y151.352 E57.62001
G1 X155.957 Y152.115 E57.6884
G1 X155.389 Y152.832 E57.75686
G1 X154.761 Y153.496 E57.82525
G1 X154.077 Y154.103 E57.89369
G1 X153.343 Y154.647 E57.96206
G1 X152.564 Y155.125 E58.03046
G1 X151.746 Y155.534 E58.0989
G1 X150.896 Y155.869 E58.16727
G1 X150.019 Y156.129 E58.23572
G1 X149.567 Y156.232 E58.27042
G1 X148.766 Y156.394 E58.33157
G1 X146.198 Y156.95 E58.5282
G1 X143.782 Y157.544 E58.71439
G1 X141.328 Y158.222 E58.90491
G1 X138.897 Y158.968 E59.09521
G1 X136.505 Y159.777 E59.28418
G1 X134.132 Y160.655 E59.47353
G1 X131.773 Y161.605 E59.66384
G1 X129.466 Y162.611 E59.85219
G1 X127.147 Y163.7 E60.04391
G1 X124.872 Y164.848 E60.23461
G1 X123.532 Y165.563 E60.34827
G1 X122.708 Y165.957 E60.41662
G1 X121.852 Y166.278 E60.48504
G1 X120.971 Y166.523 E60.55347
G1 X120.073 Y166.691 E60.62184
G1 X118.801 Y166.791 E60.71732
G1 X117.723 Y166.809 E60.79801
G1 X116.33 Y166.808 E60.90225
G1 X115.626 Y166.798 E60.95494
G1 X114.713 Y166.745 E61.02338
G1 X113.809 Y166.613 E61.09175
G1 X112.919 Y166.401 E61.16022
G1 X112.052 Y166.114 E61.22856
G1 X110.815 Y165.548 E61.33036
G1 X110.204 Y165.219 E61.3823
G1 X107.933 Y164.033 E61.57403
G1 X105.658 Y162.927 E61.76333
G1 X103.377 Y161.897 E61.95063
G1 X100.976 Y160.894 E62.14535
G1 X98.629 Y159.99 E62.33357
G1 X96.278 Y159.159 E62.52017
G1 X93.848 Y158.378 E62.71119
G1 X91.408 Y157.668 E62.90136
G1 X88.983 Y157.037 E63.08888
G1 X86.405 Y156.444 E63.28684
G1 X85.31 Y156.208 E63.37067
G1 X84.426 Y155.977 E63.43904
G1 X83.565 Y155.669 E63.50747
G1 X82.735 Y155.288 E63.57582
G1 X81.941 Y154.835 E63.64423
G1 X81.189 Y154.314 E63.71269
G1 X80.486 Y153.73 E63.78108
G1 X79.837 Y153.087 E63.84945
G1 X79.246 Y152.389 E63.9179
G1 X78.718 Y151.643 E63.98629
G1 X78.258 Y150.853 E64.05471
G1 X77.869 Y150.026 E64.1231
G1 X77.553 Y149.168 E64.19152
G1 X77.314 Y148.286 E64.25991
G1 X77.152 Y147.386 E64.32834
G1 X77.063 Y146.273 E64.4119
G1 X77.05 Y145.658 E64.45793
G1 X77.051 Y89.533 E68.65807
G1 X77.06 Y88.868 E68.70784
G1 X77.112 Y87.955 E68.77627
G1 X77.244 Y87.05 E68.84471
G1 X77.455 Y86.161 E68.91309
G1 X77.742 Y85.293 E68.98151
G1 X78.104 Y84.454 E69.04989
G1 X78.538 Y83.649 E69.11833
G1 X79.041 Y82.886 E69.18672
G1 X79.608 Y82.169 E69.25513
G1 X80.236 Y81.505 E69.32352
G1 X80.92 Y80.898 E69.39196
G1 F1200 E66.89196
G0 F6000 X86.847 Y146.653
G0 X116.924 Y151.811
G1 F1200 E69.39196
G1 X117.089 Y151.691 E69.40722
G1 X117.285 Y151.691 E69.42189
G1 X117.45 Y151.811 E69.43716
G1 X117.511 Y152 E69.45202
G1 X117.45 Y152.189 E69.46689
G1 X117.285 Y152.309 E69.48215
G1 X117.089 Y152.309 E69.49682
G1 X116.924 Y152.189 E69.51209
G1 X116.863 Y152 E69.52695
G1 X116.924 Y151.811 E69.54181
G0 F6000 X116.159 Y151.254
G1 F1200 X116.796 Y150.791 E69.60075
G1 X117.578 Y150.791 E69.65927
G1 X118.215 Y151.254 E69.7182
G1 X118.457 Y152 E69.77689
G1 X118.215 Y152.746 E69.83558
G1 X117.578 Y153.209 E69.89451
G1 X116.796 Y153.209 E69.95303
G1 X116.159 Y152.746 E70.01197
G1 X115.917 Y152 E70.07066
G1 X116.159 Y151.254 E70.12935
G0 F6000 X115.394 Y150.699
G1 F1200 X116.503 Y149.891 E70.23203
G1 X117.871 Y149.891 E70.33441
G1 X118.98 Y150.699 E70.43709
G1 X119.404 Y152 E70.53949
G1 X118.98 Y153.301 E70.64189
G1 X117.871 Y154.109 E70.74458
G1 X116.503 Y154.109 E70.84695
G1 X115.394 Y153.301 E70.94963
G1 X114.97 Y152 E71.05204
G1 X115.394 Y150.699 E71.15444
G0 F6000 X114.628 Y150.143
G1 F1200 X116.21 Y148.991 E71.30089
G1 X118.164 Y148.991 E71.44712
G1 X119.746 Y150.143 E71.59357
G1 X120.35 Y152 E71.7397
G1 X119.746 Y153.857 E71.88584
G1 X118.164 Y155.009 E72.03229
G1 X116.21 Y155.009 E72.17852
G1 X114.628 Y153.857 E72.32497
G1 X114.024 Y152 E72.47111
G1 X114.628 Y150.143 E72.61724
G0 F6000 X113.862 Y149.588
G1 F1200 X115.918 Y148.091 E72.80757
G1 X118.456 Y148.091 E72.9975
G1 X120.512 Y149.588 E73.18783
G1 X121.297 Y152 E73.37765
G1 X120.512 Y154.412 E73.56747
G1 X118.456 Y155.909 E73.75779
G1 X115.918 Y155.909 E73.94773
G1 X113.862 Y154.412 E74.13805
G1 X113.077 Y152 E74.32787
G1 X113.862 Y149.588 E74.51769
G1 F1200 E72.01769
;MESH:Mini-PC V4 v1.stl
G0 F6000 X113.862 Y146.665
G0 X113.862 Y145.555
G0 X89.188 Y144.312
;TYPE:WALL-INNER
G1 F1200 E74.51769
G1 X145.813 Y144.313 E77.69586
G1 X145.813 Y100.571 E80.15094
G1 X145.813 Y90.687 E80.7057
G1 X89.187 Y90.687 E83.88391
G1 X89.188 Y144.312 E86.8937
G0 F6000 X88.513 Y144.987
G1 F1200 X146.488 Y144.988 E90.14763
G1 X146.488 Y100.571 E92.6406
G1 X146.488 Y90.012 E93.23324
G1 X88.512 Y90.012 E96.48723
G1 X88.513 Y144.987 E99.57278
G0 F6000 X87.838 Y145.662
;TYPE:WALL-OUTER
G1 F1200 X147.163 Y145.663 E102.90248
G1 X147.163 Y100.571 E105.43334
G1 X147.163 Y89.337 E106.06386
G1 X87.837 Y89.337 E109.39362
G1 X87.838 Y145.662 E112.55495
G1 F1200 E110.05495
G0 F6000 X88.395 Y145.105
G0 X87.945 Y123.287
G0 X96.499 Y122.496
G0 X100.418 Y123.287
;TYPE:WALL-INNER
G1 F1200 E112.55495
G1 X99.43 Y123.241 E112.61046
G1 X98.414 Y123.042 E112.66857
G1 X97.561 Y122.717 E112.7198
G1 X97.317 Y122.601 E112.73496
G1 X96.658 Y122.22 E112.77769
G1 X96.438 Y122.068 E112.7927
G1 X95.843 Y121.584 E112.83574
G1 X95.645 Y121.394 E112.85115
G1 X95.141 Y120.825 E112.89381
G1 X94.977 Y120.607 E112.90912
G1 X94.566 Y119.956 E112.95233
G1 X94.439 Y119.715 E112.96762
G1 X94.141 Y119.011 E113.01053
G1 X94.056 Y118.756 E113.02561
G1 X93.839 Y117.86 E113.07736
G1 X93.768 Y116.989 E113.12641
G1 X93.768 Y116.715 E113.14178
G1 X93.83 Y115.949 E113.18492
G1 X93.873 Y115.681 E113.20015
G1 X94.056 Y114.944 E113.24277
G1 X94.141 Y114.689 E113.25786
G1 X94.439 Y113.985 E113.30077
G1 X94.566 Y113.744 E113.31606
G1 X94.977 Y113.093 E113.35927
G1 X95.141 Y112.875 E113.37458
G1 X95.645 Y112.306 E113.41724
G1 X95.843 Y112.116 E113.43264
G1 X96.439 Y111.631 E113.47577
G1 X96.66 Y111.478 E113.49086
G1 X97.318 Y111.098 E113.53351
G1 X97.561 Y110.983 E113.54859
G1 X98.414 Y110.658 E113.59983
G1 X99.424 Y110.46 E113.65759
G1 X100.417 Y110.413 E113.71339
G1 X101.49 Y110.537 E113.77402
G1 X102.481 Y110.831 E113.83203
G1 X103.412 Y111.262 E113.88961
G1 X104.281 Y111.864 E113.94895
G1 X105.022 Y112.578 E114.0067
G1 X105.646 Y113.406 E114.0649
G1 X106.066 Y114.207 E114.11566
G1 X106.169 Y114.45 E114.13047
G1 X106.412 Y115.174 E114.17333
G1 X106.478 Y115.44 E114.18872
G1 X106.602 Y116.199 E114.23188
G1 X106.623 Y116.47 E114.24714
G1 X106.617 Y117.386 E114.29855
G1 X106.477 Y118.259 E114.34818
G1 X106.404 Y118.553 E114.36518
G1 X106.169 Y119.25 E114.40646
G1 X106.064 Y119.497 E114.42153
G1 X105.643 Y120.299 E114.47236
G1 X105.021 Y121.122 E114.53026
G1 X104.276 Y121.839 E114.5883
G1 X103.412 Y122.438 E114.64731
G1 X102.494 Y122.869 E114.70423
G1 X101.492 Y123.16 E114.76279
G1 X100.418 Y123.287 E114.82349
