;FLAVOR:Marlin
;TIME:1883
;Filament used: 2.77449m
;Layer height: 0.24
;MINX:86.181
;MINY:87.181
;MINZ:0.25
;MAXX:148.819
;MAXY:147.819
;MAXZ:8.89
;Generated with Cura_SteamEngine 5.2.2
M140 S60
M105
M190 S60
M104 S210
M105
M109 S210
M82 ;absolute extrusion mode
;ELEGOO NEPTUNE 3 Pro
M220 S100 ;Set the feed speed to 100%
M221 S100 ;Set the flow rate to 100%
G90
G28 ;home
;M420 S1 Z10;Uncomment to enable progressive compensation height of 10mm
G92 E0 ;Reset Extruder
G1 Z0.45 F300
G1 X1.5 Y20 F5000.0 ;Move to start position
G1 Y120.0 F600.0 E15 ;Draw the first line
G1 X0.5 F1000.0 ;Move to side a little
G1 Y20 F600 E30 ;Draw the second line
G92 E0 ;Reset Extruder
G92 E0
G92 E0
G1 F2700 E-1
;LAYER_COUNT:37
;LAYER:0
M107
M204 S500
G0 F6000 X87.182 Y88.441 Z0.25
;TYPE:SKIRT
G1 F2700 E0
G1 F1800 X87.582 Y88.06 E0.03135
G1 X88.033 Y87.741 E0.0627
G1 X88.525 Y87.49 E0.09404
G1 X89.048 Y87.313 E0.12538
G1 X89.591 Y87.213 E0.15671
G1 X90.33 Y87.181 E0.19869
G1 X144.348 Y87.181 E3.26422
G1 X145.046 Y87.191 E3.30383
G1 X145.596 Y87.239 E3.33516
G1 X146.134 Y87.366 E3.36653
G1 X146.647 Y87.569 E3.39784
G1 X147.126 Y87.844 E3.42919
G1 X147.561 Y88.185 E3.46055
G1 X147.942 Y88.585 E3.4919
G1 X148.26 Y89.036 E3.52322
G1 X148.511 Y89.529 E3.55462
G1 X148.688 Y90.052 E3.58595
G1 X148.787 Y90.595 E3.61727
G1 X148.819 Y91.33 E3.65902
G1 X148.819 Y143.311 E6.60895
G1 X148.81 Y144.038 E6.65021
G1 X148.763 Y144.589 E6.6816
G1 X148.637 Y145.127 E6.71295
G1 X148.435 Y145.641 E6.74429
G1 X148.161 Y146.12 E6.77561
G1 X147.821 Y146.555 E6.80694
G1 X147.421 Y146.937 E6.83833
G1 X146.971 Y147.257 E6.86967
G1 X146.479 Y147.508 E6.90101
G1 X145.956 Y147.686 E6.93236
G1 X145.413 Y147.787 E6.96371
G1 X144.67 Y147.819 E7.00591
G1 X90.658 Y147.819 E10.0711
G1 X89.96 Y147.81 E10.11071
G1 X89.409 Y147.763 E10.1421
G1 X88.872 Y147.637 E10.1734
G1 X88.358 Y147.434 E10.20476
G1 X87.878 Y147.16 E10.23613
G1 X87.443 Y146.82 E10.26746
G1 X87.062 Y146.42 E10.29881
G1 X86.742 Y145.969 E10.33019
G1 X86.491 Y145.477 E10.36154
G1 X86.314 Y144.954 E10.39287
G1 X86.213 Y144.411 E10.42421
G1 X86.182 Y143.761 E10.46114
G1 X86.181 Y91.622 E13.42004
G1 X86.19 Y90.957 E13.45778
G1 X86.238 Y90.407 E13.48911
G1 X86.364 Y89.869 E13.52047
G1 X86.567 Y89.355 E13.55183
G1 X86.841 Y88.876 E13.58315
G1 X87.182 Y88.441 E13.61451
G0 F6000 X87.718 Y88.672
G1 F1800 X88.11 Y88.343 E13.64356
G1 X88.548 Y88.08 E13.67255
G1 X89.022 Y87.888 E13.70157
G1 X89.52 Y87.773 E13.73058
G1 X90.016 Y87.728 E13.75884
G1 X144.34 Y87.727 E16.84173
G1 X145.038 Y87.737 E16.88135
G1 X145.547 Y87.785 E16.91036
G1 X146.043 Y87.911 E16.93941
G1 X146.512 Y88.112 E16.96836
G1 X146.945 Y88.384 E16.99738
G1 X147.33 Y88.721 E17.02642
G1 X147.658 Y89.113 E17.05543
G1 X147.921 Y89.552 E17.08447
G1 X148.113 Y90.026 E17.11349
G1 X148.228 Y90.524 E17.1425
G1 X148.272 Y91.019 E17.1707
G1 X148.273 Y143.305 E20.13793
G1 X148.264 Y144.032 E20.17919
G1 X148.218 Y144.541 E20.2082
G1 X148.093 Y145.037 E20.23723
G1 X147.892 Y145.507 E20.26623
G1 X147.62 Y145.94 E20.29525
G1 X147.285 Y146.326 E20.32426
G1 X146.893 Y146.655 E20.3533
G1 X146.455 Y146.918 E20.38229
G1 X145.981 Y147.111 E20.41134
G1 X145.483 Y147.227 E20.44036
G1 X144.983 Y147.272 E20.46885
G1 X90.665 Y147.273 E23.5514
G1 X89.967 Y147.264 E23.59101
G1 X89.458 Y147.217 E23.62002
G1 X88.962 Y147.092 E23.64905
G1 X88.492 Y146.891 E23.67806
G1 X88.059 Y146.619 E23.70708
G1 X87.673 Y146.284 E23.73608
G1 X87.344 Y145.892 E23.76513
G1 X87.081 Y145.454 E23.79412
G1 X86.889 Y144.98 E23.82314
G1 X86.773 Y144.482 E23.85216
G1 X86.728 Y143.978 E23.88088
G1 X86.727 Y91.63 E26.85163
G1 X86.736 Y90.965 E26.88937
G1 X86.783 Y90.456 E26.91838
G1 X86.909 Y89.96 E26.94742
G1 X87.11 Y89.49 E26.97643
G1 X87.382 Y89.057 E27.00545
G1 X87.718 Y88.672 E27.03445
G1 F2700 E26.03445
;MESH:Mini PC - Bottom Plate v6.stl
G0 F6000 X90.424 Y90.335
G0 X90.424 Y91.424
G1 F2700 E27.03445
G0 F6000 X90.819 Y91.819
;TYPE:WALL-INNER
G1 F1800 X90.819 Y143.181 E29.94925
G1 X144.181 Y143.181 E32.97755
G1 X144.181 Y117.5 E34.43495
G1 X144.181 Y91.819 E35.89235
G1 X90.819 Y91.819 E38.92065
G0 F6000 X90.273 Y91.273
;TYPE:WALL-OUTER
G1 F1800 X90.273 Y143.727 E41.89742
G1 X144.727 Y143.727 E44.98769
G1 X144.727 Y117.5 E46.47607
G1 X144.727 Y91.273 E47.96446
G1 X90.273 Y91.273 E51.05473
G0 F6000 X90.273 Y91.473
G0 X90.88 Y91.88
G0 X91.344 Y92.344
;TYPE:SKIN
G1 F1800 X91.344 Y142.656 E53.90994
G1 X143.656 Y142.656 E56.87865
G1 X143.656 Y92.344 E59.73386
G1 X91.344 Y92.344 E62.70257
G1 F2700 E61.70257
G0 F6000 X90.992 Y92.344
G0 X91.064 Y142.936
G0 X92.191 Y143.008
G1 F2700 E62.70257
G0 F6000 X92.191 Y142.381
G1 F1800 X91.616 Y141.807 E62.74868
G0 F6000 X91.616 Y141.035
G1 F1800 X92.963 Y142.381 E62.85675
G0 F6000 X93.735 Y142.381
G1 F1800 X91.616 Y140.263 E63.02677
G0 F6000 X91.616 Y139.49
G1 F1800 X94.507 Y142.381 E63.25879
G0 F6000 X95.279 Y142.381
G1 F1800 X91.616 Y138.718 E63.55277
G0 F6000 X91.616 Y137.946
G1 F1800 X96.051 Y142.381 E63.90871
G0 F6000 X96.824 Y142.381
G1 F1800 X91.616 Y137.174 E64.32665
G0 F6000 X91.616 Y136.402
G1 F1800 X97.596 Y142.381 E64.80654
G0 F6000 X98.368 Y142.381
G1 F1800 X91.616 Y135.63 E65.3484
G0 F6000 X91.616 Y134.857
G1 F1800 X99.14 Y142.381 E65.95225
G0 F6000 X99.912 Y142.381
G1 F1800 X91.616 Y134.085 E66.61806
G0 F6000 X91.616 Y133.313
G1 F1800 X100.684 Y142.381 E67.34583
G0 F6000 X101.457 Y142.381
G1 F1800 X91.616 Y132.541 E68.1356
G0 F6000 X91.616 Y131.769
G1 F1800 X102.229 Y142.381 E68.98732
G0 F6000 X103.001 Y142.381
G1 F1800 X91.616 Y130.997 E69.901
G0 F6000 X91.616 Y130.225
G1 F1800 X103.773 Y142.381 E70.87664
G0 F6000 X104.545 Y142.381
G1 F1800 X91.616 Y129.452 E71.91428
G0 F6000 X91.616 Y128.68
G1 F1800 X105.317 Y142.381 E73.01388
G0 F6000 X106.09 Y142.381
G1 F1800 X91.616 Y127.908 E74.17548
G0 F6000 X91.616 Y127.136
G1 F1800 X106.862 Y142.381 E75.39903
G0 F6000 X107.634 Y142.381
G1 F1800 X91.616 Y126.364 E76.68455
G0 F6000 X91.616 Y125.592
G1 F1800 X108.406 Y142.381 E78.03202
G0 F6000 X109.178 Y142.381
G1 F1800 X91.616 Y124.819 E79.44149
G0 F6000 X91.616 Y124.047
G1 F1800 X109.95 Y142.381 E80.91291
G0 F6000 X110.723 Y142.381
G1 F1800 X91.616 Y123.275 E82.44634
G0 F6000 X91.616 Y122.503
G1 F1800 X111.495 Y142.381 E84.04172
G0 F6000 X112.267 Y142.381
G1 F1800 X91.616 Y121.731 E85.69907
G0 F6000 X91.616 Y120.959
G1 F1800 X113.039 Y142.381 E87.41837
G0 F6000 X113.811 Y142.381
G1 F1800 X91.616 Y120.186 E89.19967
G0 F6000 X91.616 Y119.414
G1 F1800 X114.583 Y142.381 E91.04292
G0 F6000 X115.355 Y142.381
G1 F1800 X91.616 Y118.642 E92.94814
G0 F6000 X91.616 Y117.87
G1 F1800 X116.128 Y142.381 E94.91535
G0 F6000 X116.9 Y142.381
G1 F1800 X91.616 Y117.098 E96.94452
G0 F6000 X91.616 Y116.326
G1 F1800 X117.673 Y142.382 E99.03574
G0 F6000 X118.445 Y142.382
G1 F1800 X91.616 Y115.553 E101.18894
G0 F6000 X91.616 Y114.781
G1 F1800 X119.217 Y142.382 E103.40411
G0 F6000 X119.989 Y142.382
G1 F1800 X91.616 Y114.009 E105.68124
G0 F6000 X91.616 Y113.237
G1 F1800 X120.761 Y142.382 E108.02032
G0 F6000 X121.533 Y142.382
G1 F1800 X91.616 Y112.465 E110.42136
G0 F6000 X91.616 Y111.693
G1 F1800 X122.306 Y142.382 E112.8844
G0 F6000 X123.078 Y142.382
G1 F1800 X91.616 Y110.921 E115.4094
G0 F6000 X91.616 Y110.148
G1 F1800 X123.85 Y142.382 E117.9964
G0 F6000 X124.622 Y142.382
G1 F1800 X91.616 Y109.376 E120.64535
G0 F6000 X91.616 Y108.604
G1 F1800 X125.394 Y142.382 E123.35626
G0 F6000 X126.166 Y142.382
G1 F1800 X91.616 Y107.832 E126.12914
G0 F6000 X91.616 Y107.06
G1 F1800 X126.939 Y142.382 E128.96401
G0 F6000 X127.711 Y142.382
G1 F1800 X91.616 Y106.288 E131.86083
G0 F6000 X91.616 Y105.515
G1 F1800 X128.483 Y142.382 E134.81966
G0 F6000 X129.255 Y142.382
G1 F1800 X91.616 Y104.743 E137.84044
G0 F6000 X91.616 Y103.971
G1 F1800 X130.027 Y142.382 E140.92319
G0 F6000 X130.799 Y142.382
G1 F1800 X91.616 Y103.199 E144.06789
G0 F6000 X91.616 Y102.427
G1 F1800 X131.572 Y142.382 E147.27459
G0 F6000 X132.344 Y142.382
G1 F1800 X91.616 Y101.655 E150.54325
G0 F6000 X91.616 Y100.882
G1 F1800 X133.116 Y142.382 E153.8739
G0 F6000 X133.888 Y142.382
G1 F1800 X91.616 Y100.11 E157.26652
G0 F6000 X91.616 Y99.338
G1 F1800 X134.66 Y142.382 E160.72109
G0 F6000 X135.432 Y142.382
G1 F1800 X91.616 Y98.566 E164.23762
G0 F6000 X91.616 Y97.794
G1 F1800 X136.205 Y142.382 E167.81615
G0 F6000 X136.977 Y142.382
G1 F1800 X91.616 Y97.022 E171.45663
G0 F6000 X91.616 Y96.249
G1 F1800 X137.749 Y142.382 E175.15912
G0 F6000 X138.521 Y142.382
G1 F1800 X91.616 Y95.477 E178.92356
G0 F6000 X91.616 Y94.705
G1 F1800 X139.293 Y142.382 E182.74997
G0 F6000 X140.065 Y142.382
G1 F1800 X91.616 Y93.933 E186.63833
G0 F6000 X91.616 Y93.161
G1 F1800 X140.837 Y142.382 E190.58864
G0 F6000 X141.61 Y142.382
G1 F1800 X91.845 Y92.617 E194.58262
G0 F6000 X92.617 Y92.617
G1 F1800 X142.382 Y142.382 E198.5766
G0 F6000 X143.154 Y142.382
G1 F1800 X93.389 Y92.617 E202.57058
G0 F6000 X94.161 Y92.617
G1 F1800 X143.382 Y141.838 E206.5209
G0 F6000 X143.382 Y141.066
G1 F1800 X94.934 Y92.617 E210.40922
G0 F6000 X95.706 Y92.617
G1 F1800 X143.382 Y140.294 E214.23558
G0 F6000 X143.382 Y139.522
G1 F1800 X96.478 Y92.617 E217.99998
G0 F6000 X97.25 Y92.617
G1 F1800 X143.382 Y138.749 E221.70239
G0 F6000 X143.382 Y137.977
G1 F1800 X98.022 Y92.617 E225.34283
G0 F6000 X98.794 Y92.617
G1 F1800 X143.382 Y137.205 E228.92132
G0 F6000 X143.382 Y136.433
G1 F1800 X99.566 Y92.617 E232.43785
G0 F6000 X100.339 Y92.617
G1 F1800 X143.382 Y135.661 E235.89239
G0 F6000 X143.382 Y134.889
G1 F1800 X101.111 Y92.617 E239.28496
G0 F6000 X101.883 Y92.617
G1 F1800 X143.382 Y134.116 E242.61554
G0 F6000 X143.382 Y133.344
G1 F1800 X102.655 Y92.617 E245.88415
G0 F6000 X103.427 Y92.617
G1 F1800 X143.382 Y132.572 E249.09081
G0 F6000 X143.382 Y131.8
G1 F1800 X104.199 Y92.617 E252.23551
G0 F6000 X104.972 Y92.617
G1 F1800 X143.382 Y131.028 E255.31822
G0 F6000 X143.382 Y130.256
G1 F1800 X105.744 Y92.617 E258.33896
G0 F6000 X106.516 Y92.617
G1 F1800 X143.382 Y129.483 E261.29771
G0 F6000 X143.382 Y128.711
G1 F1800 X107.288 Y92.617 E264.19449
G0 F6000 X108.06 Y92.617
G1 F1800 X143.382 Y127.939 E267.02932
G0 F6000 X143.382 Y127.167
G1 F1800 X108.832 Y92.617 E269.8022
G0 F6000 X109.605 Y92.617
G1 F1800 X143.382 Y126.395 E272.51307
G0 F6000 X143.382 Y125.623
G1 F1800 X110.377 Y92.617 E275.16198
G0 F6000 X111.149 Y92.617
G1 F1800 X143.382 Y124.851 E277.74894
G0 F6000 X143.382 Y124.078
G1 F1800 X111.921 Y92.617 E280.2739
G0 F6000 X112.693 Y92.617
G1 F1800 X143.382 Y123.306 E282.7369
G0 F6000 X143.382 Y122.534
G1 F1800 X113.465 Y92.617 E285.13794
G0 F6000 X114.238 Y92.617
G1 F1800 X143.382 Y121.762 E287.47698
G0 F6000 X143.382 Y120.99
G1 F1800 X115.01 Y92.617 E289.75407
G0 F6000 X115.782 Y92.617
G1 F1800 X143.382 Y120.218 E291.9692
G0 F6000 X143.382 Y119.445
G1 F1800 X116.554 Y92.617 E294.12232
G0 F6000 X117.326 Y92.617
G1 F1800 X143.382 Y118.673 E296.21349
G0 F6000 X143.382 Y117.901
G1 F1800 X118.098 Y92.617 E298.24271
G0 F6000 X118.871 Y92.617
G1 F1800 X143.382 Y117.129 E300.20992
G0 F6000 X143.382 Y116.357
G1 F1800 X119.643 Y92.617 E302.11518
G0 F6000 X120.415 Y92.617
G1 F1800 X143.382 Y115.585 E303.95847
G0 F6000 X143.382 Y114.812
G1 F1800 X121.187 Y92.617 E305.73977
G0 F6000 X121.959 Y92.617
G1 F1800 X143.382 Y114.04 E307.45911
G0 F6000 X143.382 Y113.268
G1 F1800 X122.731 Y92.617 E309.1165
G0 F6000 X123.503 Y92.617
G1 F1800 X143.382 Y112.496 E310.71192
G0 F6000 X143.382 Y111.724
G1 F1800 X124.276 Y92.617 E312.24535
G0 F6000 X125.048 Y92.617
G1 F1800 X143.382 Y110.952 E313.71681
G0 F6000 X143.382 Y110.179
G1 F1800 X125.82 Y92.617 E315.12628
G0 F6000 X126.592 Y92.617
G1 F1800 X143.382 Y109.407 E316.47379
G0 F6000 X143.382 Y108.635
G1 F1800 X127.364 Y92.617 E317.75935
G0 F6000 X128.136 Y92.617
G1 F1800 X143.382 Y107.863 E318.98294
G0 F6000 X143.382 Y107.091
G1 F1800 X128.909 Y92.617 E320.14454
G0 F6000 X129.681 Y92.617
G1 F1800 X143.382 Y106.319 E321.24418
G0 F6000 X143.382 Y105.547
G1 F1800 X130.453 Y92.617 E322.28186
G0 F6000 X131.225 Y92.617
G1 F1800 X143.382 Y104.774 E323.25754
G0 F6000 X143.382 Y104.002
G1 F1800 X131.997 Y92.617 E324.17126
G0 F6000 X132.769 Y92.617
G1 F1800 X143.382 Y103.23 E325.02303
G0 F6000 X143.382 Y102.458
G1 F1800 X133.542 Y92.617 E325.81279
G0 F6000 X134.314 Y92.617
G1 F1800 X143.382 Y101.686 E326.5406
G0 F6000 X143.382 Y100.914
G1 F1800 X135.086 Y92.617 E327.20645
G0 F6000 X135.858 Y92.617
M104 S200
G1 F1800 X143.382 Y100.141 E327.8103
G0 F6000 X143.382 Y99.369
G1 F1800 X136.63 Y92.617 E328.3522
G0 F6000 X137.402 Y92.617
G1 F1800 X143.382 Y98.597 E328.83213
G0 F6000 X143.382 Y97.825
G1 F1800 X138.175 Y92.617 E329.25007
G0 F6000 X138.947 Y92.617
G1 F1800 X143.382 Y97.053 E329.60605
G0 F6000 X143.382 Y96.281
G1 F1800 X139.719 Y92.617 E329.90007
G0 F6000 X140.491 Y92.617
G1 F1800 X143.382 Y95.508 E330.13209
G0 F6000 X143.382 Y94.736
G1 F1800 X141.263 Y92.617 E330.30216
G0 F6000 X142.035 Y92.617
G1 F1800 X143.382 Y93.964 E330.41026
G0 F6000 X143.382 Y93.192
G1 F1800 X142.807 Y92.617 E330.45641
G1 F2700 E329.45641
;MESH:NONMESH
G0 F600 X142.807 Y92.617 Z0.49
G0 F6000 X142.807 Y91.992
G0 X90.88 Y91.88
G1 F2700 E330.45641
G0 F6000 X90.63 Y91.63
;TIME_ELAPSED:213.047561
;LAYER:1
M106 S127.5
M204 S750
;TYPE:WALL-INNER
;MESH:Mini PC - Bottom Plate v6.stl
G1 F2250 X90.63 Y143.37 E332.62472
G1 X144.37 Y143.37 E334.87684
G1 X144.37 Y117.5 E335.96099
G1 X144.37 Y91.63 E337.04515
G1 X90.63 Y91.63 E339.29727
G0 F7500 X90.21 Y91.21
;TYPE:WALL-OUTER
G1 F1800 X90.21 Y143.79 E341.50078
G1 X144.79 Y143.79 E343.78811
G1 X144.79 Y117.5 E344.88986
G1 X144.79 Y91.21 E345.99162
G1 X90.21 Y91.21 E348.27895
G0 F7500 X90.21 Y91.41
G0 X90.88 Y91.88
G0 X91.029 Y92.029
;TYPE:SKIN
G1 F2250 X91.029 Y142.971 E350.41381
G1 X143.971 Y142.971 E352.63249
G1 X143.971 Y117.5 E353.69992
G1 X143.971 Y92.029 E354.76736
G1 X91.029 Y92.029 E356.98604
G0 F7500 X91.238 Y92.297
G1 F2250 X91.298 Y92.238 E356.98957
G0 F7500 X91.892 Y92.238
G1 F2250 X91.238 Y92.891 E357.0283
G0 F7500 X91.238 Y93.485
G1 F2250 X92.486 Y92.238 E357.10223
G0 F7500 X93.08 Y92.238
G1 F2250 X91.238 Y94.079 E357.21137
G0 F7500 X91.238 Y94.673
G1 F2250 X93.673 Y92.238 E357.35568
G0 F7500 X94.267 Y92.238
G1 F2250 X91.238 Y95.267 E357.5352
G0 F7500 X91.238 Y95.861
G1 F2250 X94.861 Y92.238 E357.74993
G0 F7500 X95.455 Y92.238
G1 F2250 X91.238 Y96.455 E357.99985
G0 F7500 X91.238 Y97.049
G1 F2250 X96.049 Y92.238 E358.28498
G0 F7500 X96.643 Y92.238
G1 F2250 X91.238 Y97.643 E358.60532
G0 F7500 X91.238 Y98.237
G1 F2250 X97.237 Y92.238 E358.96086
G0 F7500 X97.831 Y92.238
G1 F2250 X91.238 Y98.831 E359.3516
G0 F7500 X91.238 Y99.425
G1 F2250 X98.425 Y92.238 E359.77755
G0 F7500 X99.019 Y92.238
G1 F2250 X91.238 Y100.019 E360.23871
G0 F7500 X91.238 Y100.613
G1 F2250 X99.613 Y92.238 E360.73506
G0 F7500 X100.207 Y92.238
G1 F2250 X91.238 Y101.207 E361.26662
G0 F7500 X91.238 Y101.801
G1 F2250 X100.801 Y92.238 E361.83339
G0 F7500 X101.395 Y92.238
G1 F2250 X91.238 Y102.395 E362.43536
G0 F7500 X91.238 Y102.989
G1 F2250 X101.989 Y92.238 E363.07253
G0 F7500 X102.583 Y92.238
G1 F2250 X91.238 Y103.583 E363.74491
G0 F7500 X91.238 Y104.177
G1 F2250 X103.177 Y92.238 E364.4525
G0 F7500 X103.771 Y92.238
G1 F2250 X91.238 Y104.771 E365.19528
G0 F7500 X91.238 Y105.365
G1 F2250 X104.365 Y92.238 E365.97328
G0 F7500 X104.959 Y92.238
G1 F2250 X91.238 Y105.959 E366.78647
G0 F7500 X91.238 Y106.553
G1 F2250 X105.553 Y92.238 E367.63487
G0 F7500 X106.147 Y92.238
G1 F2250 X91.238 Y107.147 E368.51848
G0 F7500 X91.238 Y107.741
G1 F2250 X106.741 Y92.238 E369.43729
G0 F7500 X107.335 Y92.238
G1 F2250 X91.238 Y108.335 E370.3913
G0 F7500 X91.238 Y108.929
